X:1
T:The Pace That Kills
T:The Pace That Kills
T:March
T:JACOB GLOGAU
T:1911
T:1911
T:1911
C:Jacob Glogau
Z:1911
%%score { 1 | 2 }
L:1/8
Q:1/4=120
M:2/4
K:Bb
V:1 treble nm="Piano" snm="Pno."
V:2 bass 
V:1
 [DE] z AA/B/ | cc/d/ e[G_d=e] | [Fcf] [Be_gb]2 [Be_gb] | [Aefa] z [fae'] z |: %4
 [DF][DG]/[DG]/ [DA][DA] | [DA][DB] [Ec][=E^c] | [Fd] [FBd]2 [=EB] | [FBd]2 [F^G]2 | %8
 [DF][DG]/[DG]/ [DG][DA]/[DA]/ | [FAe]2 ([GB-e]2 | [FBf]) [FBf]2 [Ae] | [FBf][Fd] [Fc][FB] | %12
 [DF][DG]/[DG]/ [DG][DG]/[DG]/ | [DA][DB] [Ec][=E^c] | [Fd] [FBd]2 [=EB=e] | [FBd] z [F_A_d] z | %16
 [F^Ac] [FA=e]2 [_A=Bd] | [GBc][GB^c] [GBd][GB=e] | ff ff | f[^G=B] [Ac][GB] |1 %20
 [Acg] z [FAef] z :|2 [Acf] z [Ff][G=e] |: [Ae][Ag] [Ae][Ad] | [Ad]c GA | [Fc]B AB | %25
 [Fcf][FB] [FA][FB] | [EB]A ^GA | [EBe][EA] [E^G][EA] | [DA]G [_DA]G | [DF][DF] [Ff][G=e] | %30
 [Ae][Ag] [Ae][Ad] | [Ad]c GA | [Fc]B AB | [Fcf][FB] [FA][FB] | GA [_AB]c | [FBd][Bg] [=Bf][Bd] | %36
 [Bc]2 A2 |1 B2 [Ff][G=e] :|2 B z [Bdb]2 ||[K:Eb] c[GB]/[GB]/ [GB][GB] | [Bc]2 =A2 | %41
 [E=Ae][=B,EA] A2- | [CEA]=A Bc | d[^FB]/[FB]/ [FB][FB] | c[D^F] B[DF] | [EGc][B,EG] B,2- | %46
 [B,EG][EG] [F=A][GB] | c[EB]/[EB]/ [EB][EB] | B[C=E] G[CE] | [CF][CF=A] c2- | %50
 [F=Ac][FA=B] [FAc][FAd] | [F=Ae] [FAd]2 [FAc] | [=EA=B]2 [E=Ac]2 | f[Ad] [Ac][A=B] | [=ABf]B cd | %55
 e[GB]/[GB]/ [GB][GB] | d[EG] c[EG] | [EAe][CEA] [CEA]2 | AB cd | d[_GB]/[GB]/ [GB][GB] | %60
 c[D_G] B[DG] | [EGd][B,EG] [B,DG]2 | [B,G]G _G=G | _d[=EB]/[EB]/ [EB][EB] | c[=EB] G[C_E] | %65
 [CF]A d2- | [FAd] [FAd]3 | [EGB][EG=A] [EGB][E=B] | c[=E=A] d[D_A] | e[EG]/[EG]/ [EG][EG] | %70
 [EGe] z [EGBe] z |: GG/=A/ =BA/B/ | d [Gdg]2 [Gd]2 | [Ge]E/D/ CC/D/ | EE/D/ C z | %75
 FF/G/ z/ =A/A/B/ | c [Fcf]2 [Fc] | [Fd]D/C/ B,B,/C/ | DD/C/ B, z | [DAB] [DAB]2 [DAB] | %80
 [DAB][DAB] [DAB]2 | [DAB] [DAB]2 [DAB] | [DAB][DAB] [DAB]2 | B, c2 B | AG FE | DE DC | B, z z2 | %87
 [ege']4 | [ed']2 [egc']2 | [eae'][ea] [ea]2 | [ea][ea] [eb][eae'] | [d_gd']4 | [d_gc']2 [dgd']2 | %93
 [egd'][eg] [eg]2 | [eg][eg] [da][_db] | [c=ec']4 | [c=eb]2 [ceg]2 | [cf][cfa] a2- | %98
 [ac'][a=b] [ac'][ad'] | [e=ae'] [ead']2 [eac'] | [e=ab=b]2 [eac']2 | %101
 [ff'][ff'] [fad'][fac'][fa_d'] | [fab][Bb] [cc'][dd'] | [ege']4 | [egd']2 [egc']2 | %105
 [eae'][ea] a2- | [ea][ea] [eb][eac'] | [d_gd']4 | [e_ge']2 [egc']2 | [egd'][eg] [eg]2 | %110
 [eg][eg] [e_g][e=g] | [=eb_d']4 | [c=ec']2 [ceb]2 | [cf][ca] a2- | [dad']2 [e_ge']2 | %115
 [egb][e=a] [eb][e=b] | [e=ac']2 [e_ad']2 | [ege']4 | [ege'] z [ege'] z z |] %119
V:2
 [F,A,]A,/B,/ CC/D/ | EE/D/ CB, | A, [C,C]2 [C,C] | [F,F] z [F,,F,] z |: B,,[F,B,] F,,[G,B,] | %5
 B,,[F,B,] B,,[G,B,] | B,,[F,B,] B,,[G,B,] | [B,,B,][A,,A,] [B,,B,][=B,,=B,] | %8
 [C,C] [C,C]2 [=B,,=B,] | [C,C]2 (([^C,^C]2 | [B,,B,]/)) z/ [D,D]2 [^C,^C] | [C,D]B, CD | %12
 B,,[F,B,] F,,[F,B,] | B,,[F,B,] B,,[G,B,] | B,,[F,B,] B,,[G,B,] | [B,,B,] z [=B,,=B,] z | %16
 [C,C] C2 F | E_E DC | F,[F,D] [F,_E][F,D] | [F,E] z [F,,F,] z |1 [F,E] z [F,,F,] z :|2 %21
 [F,E]2 z2 |: C,[F,A,E] F,,[F,A,E] | F,[A,E] E,[A,C] | D,[F,B,D] F,,[F,B,D] | B,,[F,B,D] [F,B,D]2 | %26
 C,[F,A,] F,,[F,A,] | C,F, F,,2 | B,,2 F,2 | [B,,=E,]2 [B,,F,]2 | [B,,F,]2 z2 | %31
 F,[A,E] F,,[F,A,E] | B,,[F,B,D] F,,[F,B,D] | B,,[F,B,D] [F,B,D]2 | E,[B,E] E,[B,E] | %35
 F,[B,D] G,[B,E] | [C=E]2 [F,_E]2 |1 [B,D] z z2 :|2 [B,D] z [B,,B,] z ||[K:Eb] E4 | D2 C2 | %41
 F,=E, F,=A, | C=A, B,C | D4 | C2 B,2 | E,D, E,G, | B,E D_D | C4 | B,2 G,2 | =A,=E, F,A, | C z z2 | %51
 [F,C] [F,D]2 [F,E] | [F,D]2 [F,E]2 | z B, C_D | DB, CD | E4 | D2 C2 | F,=E, F,=A, | C=A, B,C | %59
 D4 | C2 B,2 | E,D, E,G, | B,G, ^F,G, | _D4 | C2 G,2 | =A,=E, F,G, | =A,2 A,2 | B,2 G,A, | %68
 G,2 B,,2 | E,=A, B,G, | E, z [E,,E,]G, |: G,G,/=A,/ =B,B,/C/ | z D =B,2 B, | CE,/D,/ C,C,/D,/ | %74
 E,E,/D,/ C, z | F,F,/G,/ =A,A,/B,/ | C =A,2 A, | B,D,/C,/ B,,B,,/C,/ | D,D,/C,/ B,, z | %79
 B,, F,2 E, | D,C, B,,2 | B,, =A,2 G, | F,E, D,2 | B,, C2 B, | =A,G, F,E, | D,E, D,C, | %86
 B,,[=A,,=A,] [G,,G,][F,,F,] | [E,,E,][G,B,E] B,,[G,B,E] | E,[G,B,E] B,,[G,B,E] | %89
 F,[A,CE] [A,CE]C, | F,[A,CE] [A,CE] z | B,,[_G,B,D] D,[G,B,D] | B,,[_G,B,D] D,[G,B,D] | %93
 E,[G,B,E] [G,B,E]B,, | E,[G,B,E] [G,B,E] z | G,[B,C=E] C,[B,CE] | G,[B,C=E] B,[CE] | %97
 A,[CF] [CF]C, | F,[A,CF] [A,CF] z | C,[=A,E] F,[A,E] | F,,[=A,E] F,[A,E] | %101
 z [B,,B,]2 [C,C][_D,_D] | [D,D] z z2 | [E,,E,][G,B,E] B,,[G,B,E] | E,[G,B,E] B,,[G,B,E] | %105
 F,[A,CE] C,F, | [A,CE][A,CE] z2 | B,,[_G,B,D] D,[G,B,D] | B,,[_G,B,D] D,[G,B,D] | %109
 E,[G,B,E] [G,B,E]B,, | E,[B,E] [G,B,E] z | G,[B,C=E] C,[B,CE] | G,[B,C=E] B,[CE] | G,=E, F,G, | %114
 A,G, A,=A, | B,2 [G,,G,][_G,,_G,] | [F,,F,]2 [B,,B,]2 | [E,,E,]C, B,,G,, | E,, z C,,,E,, z |] %119

